public/sheesh/icons15.svg

<svg fill="none" height="40" viewBox="0 0 40 40" width="40" xmlns="http://www.w3.org/2000/svg" xmlns:xlink="http://www.w3.org/1999/xlink"><linearGradient id="a"><stop offset="0" stop-color="#34c796"/><stop offset="1" stop-color="#0b7a55"/></linearGradient><linearGradient id="b" gradientUnits="userSpaceOnUse" x1="20" x2="20" xlink:href="#a" y1="0" y2="40"/><linearGradient id="c" gradientUnits="userSpaceOnUse" x1="26.66" x2="26.66" xlink:href="#a" y1="22.8633" y2="30.4188"/><linearGradient id="d" gradientUnits="userSpaceOnUse" x1="13.334" x2="13.334" xlink:href="#a" y1="9.5293" y2="17.0849"/><linearGradient id="e" gradientUnits="userSpaceOnUse" x1="22.9948" x2="22.9948" xlink:href="#a" y1="11.5566" y2="22.4544"/><linearGradient id="f" gradientUnits="userSpaceOnUse" x1="16.9682" x2="16.9682" xlink:href="#a" y1="21.6191" y2="22.2862"/><linearGradient id="g" gradientUnits="userSpaceOnUse" x1="17.2216" x2="17.2216" xlink:href="#a" y1="23.627" y2="24.2936"/><linearGradient id="h" gradientUnits="userSpaceOnUse" x1="17.0446" x2="17.0446" xlink:href="#a" y1="17.4668" y2="28.4446"/><circle cx="20" cy="20" fill="#151722" r="19" stroke="url(#b)" stroke-width="2"/><path d="m29.7783 22.8633c-.3645 0-.6667.3022-.6667.6666 0 2.6312-1.8311 4.8356-4.2933 5.4134l.24-.4c.1866-.32.0889-.7289-.2311-.9156-.3112-.1866-.7289-.0889-.9156.2311l-.9333 1.5556c-.1245.2044-.1245.4622-.0089.6667.1155.2133.3378.3377.5778.3377 3.7955 0 6.8888-3.0933 6.8888-6.8889.0089-.3644-.2933-.6666-.6577-.6666z" fill="url(#c)"/><path d="m16.4446 9.5293c-3.7956 0-6.88894 3.0933-6.88894 6.8889 0 .3644.30223.6667.66664.6667.3645 0 .6667-.3023.6667-.6667 0-2.6311 1.8311-4.8356 4.2933-5.4133l-.24.4c-.1866.32-.0889.7288.2311.9155.3112.1867.7289.0889.9156-.2311l.9333-1.5556c.1156-.2044.1245-.4533 0-.66663-.1155-.20444-.3377-.33777-.5777-.33777z" fill="url(#d)"/><path d="m28.4437 17.0411c0 2.7378-1.9911 4.9955-4.5956 5.4133 0-.0089 0-.0089 0-.0178-.2578-3.3155-2.9422-6.0177-6.3022-6.2844.4178-2.6044 2.6756-4.5956 5.4133-4.5956 3.0311 0 5.4845 2.4534 5.4845 5.4845z" fill="url(#e)"/><path d="m18.0527 21.9569c0-.1333-.1511-.3378-.3378-.3378h-1.8311v.6667h1.8311c.1867.0089.3378-.1422.3378-.3289z" fill="url(#f)"/><path d="m18.0705 23.627h-.3556-1.8311v.6666h2.1955c.2845 0 .48-.1778.48-.3378s-.2044-.3288-.4888-.3288z" fill="url(#g)"/><path d="m22.5157 22.5335c-.2045-2.6934-2.3556-4.8445-5.0489-5.0489-.1422-.0089-.2756-.0178-.4267-.0178-3.0311 0-5.4844 2.4533-5.4844 5.4933 0 3.0311 2.4533 5.4845 5.4844 5.4845s5.4933-2.4534 5.4933-5.4845c0-.1511-.0088-.2844-.0177-.4266z" fill="url(#h)"/></svg>

<svg width="40" height="40" viewBox="0 0 40 40" fill="none" xmlns="http://www.w3.org/2000/svg">
<circle cx="20" cy="20" r="19" fill="#151722" stroke="url(#paint0_linear_342_13671)" stroke-width="2"/>
<path d="M29.7783 22.8633C29.4138 22.8633 29.1116 23.1655 29.1116 23.5299C29.1116 26.1611 27.2805 28.3655 24.8183 28.9433L25.0583 28.5433C25.2449 28.2233 25.1472 27.8144 24.8272 27.6277C24.516 27.4411 24.0983 27.5388 23.9116 27.8588L22.9783 29.4144C22.8538 29.6188 22.8538 29.8766 22.9694 30.0811C23.0849 30.2944 23.3072 30.4188 23.5472 30.4188C27.3427 30.4188 30.436 27.3255 30.436 23.5299C30.4449 23.1655 30.1427 22.8633 29.7783 22.8633Z" fill="url(#paint1_linear_342_13671)"/>
<path d="M16.4446 9.5293C12.649 9.5293 9.55566 12.6226 9.55566 16.4182C9.55566 16.7826 9.85789 17.0849 10.2223 17.0849C10.5868 17.0849 10.889 16.7826 10.889 16.4182C10.889 13.7871 12.7201 11.5826 15.1823 11.0049L14.9423 11.4049C14.7557 11.7249 14.8534 12.1337 15.1734 12.3204C15.4846 12.5071 15.9023 12.4093 16.089 12.0893L17.0223 10.5337C17.1379 10.3293 17.1468 10.0804 17.0223 9.86707C16.9068 9.66263 16.6846 9.5293 16.4446 9.5293Z" fill="url(#paint2_linear_342_13671)"/>
<path d="M28.4437 17.0411C28.4437 19.7789 26.4526 22.0366 23.8481 22.4544C23.8481 22.4455 23.8481 22.4455 23.8481 22.4366C23.5903 19.1211 20.9059 16.4189 17.5459 16.1522C17.9637 13.5478 20.2215 11.5566 22.9592 11.5566C25.9903 11.5566 28.4437 14.01 28.4437 17.0411Z" fill="url(#paint3_linear_342_13671)"/>
<path d="M18.0527 21.9569C18.0527 21.8236 17.9016 21.6191 17.7149 21.6191H15.8838V22.2858H17.7149C17.9016 22.2947 18.0527 22.1436 18.0527 21.9569Z" fill="url(#paint4_linear_342_13671)"/>
<path d="M18.0705 23.627H17.7149H15.8838V24.2936H18.0793C18.3638 24.2936 18.5593 24.1158 18.5593 23.9558C18.5593 23.7958 18.3549 23.627 18.0705 23.627Z" fill="url(#paint5_linear_342_13671)"/>
<path d="M22.5157 22.5335C22.3112 19.8401 20.1601 17.689 17.4668 17.4846C17.3246 17.4757 17.1912 17.4668 17.0401 17.4668C14.009 17.4668 11.5557 19.9201 11.5557 22.9601C11.5557 25.9912 14.009 28.4446 17.0401 28.4446C20.0712 28.4446 22.5334 25.9912 22.5334 22.9601C22.5334 22.809 22.5246 22.6757 22.5157 22.5335Z" fill="url(#paint6_linear_342_13671)"/>
<defs>
<linearGradient id="paint0_linear_342_13671" x1="20" y1="0" x2="20" y2="40" gradientUnits="userSpaceOnUse">
<stop stop-color="#34C796"/>
<stop offset="1" stop-color="#0B7A55"/>
</linearGradient>
<linearGradient id="paint1_linear_342_13671" x1="26.66" y1="22.8633" x2="26.66" y2="30.4188" gradientUnits="userSpaceOnUse">
<stop stop-color="#34C796"/>
<stop offset="1" stop-color="#0B7A55"/>
</linearGradient>
<linearGradient id="paint2_linear_342_13671" x1="13.334" y1="9.5293" x2="13.334" y2="17.0849" gradientUnits="userSpaceOnUse">
<stop stop-color="#34C796"/>
<stop offset="1" stop-color="#0B7A55"/>
</linearGradient>
<linearGradient id="paint3_linear_342_13671" x1="22.9948" y1="11.5566" x2="22.9948" y2="22.4544" gradientUnits="userSpaceOnUse">
<stop stop-color="#34C796"/>
<stop offset="1" stop-color="#0B7A55"/>
</linearGradient>
<linearGradient id="paint4_linear_342_13671" x1="16.9682" y1="21.6191" x2="16.9682" y2="22.2862" gradientUnits="userSpaceOnUse">
<stop stop-color="#34C796"/>
<stop offset="1" stop-color="#0B7A55"/>
</linearGradient>
<linearGradient id="paint5_linear_342_13671" x1="17.2216" y1="23.627" x2="17.2216" y2="24.2936" gradientUnits="userSpaceOnUse">
<stop stop-color="#34C796"/>
<stop offset="1" stop-color="#0B7A55"/>
</linearGradient>
<linearGradient id="paint6_linear_342_13671" x1="17.0446" y1="17.4668" x2="17.0446" y2="28.4446" gradientUnits="userSpaceOnUse">
<stop stop-color="#34C796"/>
<stop offset="1" stop-color="#0B7A55"/>
</linearGradient>
</defs>
</svg>
